app/img/logo.svg

<svg width="531" height="124" viewBox="0 0 531 124" fill="none" xmlns="http://www.w3.org/2000/svg">
<path fill-rule="evenodd" clip-rule="evenodd" d="M493.93 46.048V88.7936C493.93 94.7458 495.911 97.355 500.329 98.759C505.341 100.35 511.502 97.8091 514.045 97.5956C514.045 107.173 515.199 107.558 510.903 107.652C510.903 101.95 512.683 103.253 495.187 103.253C495.187 114.949 502.418 115.779 511.91 115.825H514.786H515.304C523.618 115.825 530.392 112.767 530.392 104.508V44.158H514.048V88.7887C514.048 90.6983 512.958 90.9241 511.534 91.3046C510.032 88.1702 510.898 56.5975 510.96 48.5025C511.001 42.9454 512.145 44.1555 495.818 44.1555C494.372 44.1555 493.933 44.5924 493.933 46.0406L493.93 46.048ZM468.155 44.1629H451.811V98.2264H468.155V54.2215C468.155 52.6138 470.958 49.5211 471.353 54.7542C471.552 57.4026 471.299 61.4624 471.299 64.2802H488.273C488.273 46.8776 489.799 43.5321 477.586 43.5321C475.065 43.5321 473.695 43.8634 471.722 44.6415C468.96 45.7313 468.428 47.2752 468.158 44.1629H468.155ZM422.894 44.1629H417.236V52.334H422.894V88.7936C422.894 93.3001 423.971 95.4724 426.907 97.355C431.021 99.9961 441.344 99.4831 446.781 99.4831V90.0528C444.663 90.0528 439.867 90.3228 439.867 86.9085V52.3316H446.781V44.1604H439.867V31.5883H422.894V44.1604V44.1629ZM392.72 46.048V44.1629H376.375V98.2264H392.72V54.2215C392.72 52.4715 394.384 50.9963 395.435 52.6457C396.485 54.2952 395.862 95.276 395.862 98.2264H410.947C412.396 98.2264 412.833 97.7895 412.833 96.3413V53.5932C412.833 43.0289 407.649 43.5345 402.148 43.5345C398.449 43.5345 395.128 44.7741 392.718 46.0504L392.72 46.048ZM332.371 91.3095C332.371 99.8734 340.512 100.05 347.208 98.5896C352.017 97.544 348.639 96.9574 352.731 97.9416C352.881 97.9785 353.048 98.0374 353.21 98.0693L368.83 98.2215V46.0455C368.83 42.808 362.623 44.1604 353.745 44.1604C350.772 44.1604 351.857 49.0425 351.86 54.2191C351.86 61.5532 352.714 87.5884 351.231 90.6787C348.956 90.4308 348.715 89.9497 348.715 87.5369V44.1604H332.371V91.3071V91.3095ZM305.339 89.4244V51.7057H307.855V89.4244C307.855 91.1941 307.582 90.5879 306.596 91.3095C305.538 90.5731 305.339 91.2211 305.339 89.4244ZM288.366 52.9624V90.6811C288.366 99.3849 300.042 99.4831 305.967 99.4831C315.481 99.4831 324.825 98.9603 324.825 89.4244V53.5907C324.825 41.0358 309.683 43.5321 298.422 43.5321C295.118 43.5321 293.449 44.6464 291.557 46.097C289.421 47.7342 288.366 49.2806 288.366 52.9624ZM244.361 52.334V90.0528C244.361 99.7457 254.164 99.4831 262.591 99.4831C283.307 99.4831 280.823 96.2799 280.823 78.1066C258.538 78.1066 264.653 76.2927 263.906 88.2242C263.705 91.447 264.444 89.9521 262.591 91.3095C261.53 90.5731 261.334 91.2211 261.334 89.4244V51.7057H263.847C263.847 66.6464 260.576 63.6494 278.935 63.6494C281.986 63.6494 280.821 59.0742 280.821 51.0773C280.821 40.9204 264.017 43.5321 253.16 43.5321C247.66 43.5321 244.358 46.8359 244.358 52.334H244.361Z" fill="#0086D1"/>
<path fill-rule="evenodd" clip-rule="evenodd" d="M80.7222 94.8785C79.8631 90.8948 76.3727 85.0702 74.8607 79.6972C73.091 73.4111 72.4774 67.4049 72.6541 60.5519L73.5697 52.9232L74.1317 49.5801L76.1911 43.6451C76.2475 43.3112 76.5028 43.2965 76.6599 43.1198C76.6746 39.9166 77.9387 37.1234 79.7232 34.9217L80.5233 33.2084L80.759 31.7013H68.4397C67.5168 42.7958 64.9297 54.9555 64.9297 66.8011C62.3917 64.9406 63.9381 67.9768 62.2224 58.981C61.1203 53.2104 57.9441 35.4297 56.1572 31.7013H35.9736C34.793 34.1657 28.9561 63.6225 28.9561 67.6774H28.0774C28.0774 58.2225 26.2021 48.4093 25.3185 38.8514C24.6312 31.446 25.0559 31.5319 16.7006 31.6743C11.1485 31.7676 5.55706 31.7013 0 31.7013L12.955 103.857C13.9712 108.172 13.7871 107.222 23.6887 107.166C28.6591 107.136 33.6369 107.161 38.6098 107.161C38.649 105.269 44.2576 78.9731 46.2164 74.4052C46.2753 74.2751 46.3882 74.0052 46.506 73.8186C46.9503 79.1818 53.3983 101.518 53.5235 107.158C59.9912 107.158 66.4417 107.173 72.9045 107.235C77.1042 107.276 79.4654 109.996 80.7222 94.876V94.8785ZM205.321 97.5097C203.299 93.9114 204.445 49.8918 204.445 42.2312C207.258 42.2926 208.831 41.9441 208.831 44.8625V93.9998C208.831 96.7464 207.263 96.9354 205.321 97.5097ZM180.754 22.0501C182.35 26.4265 186.65 29.183 191.107 39.7571C205.965 74.9968 182.153 100.578 180.754 104.53V107.161H204.445C205.861 102.885 206.964 108.688 216.713 108.688C221.823 108.688 226.784 107.667 229.447 104.085C234.062 97.8828 231.644 80.8238 231.644 71.1849C231.644 56.8529 235.169 37.2608 226.75 32.2069C224.513 30.8668 222.729 30.7956 219.396 30.7637C208.193 30.6557 210.351 32.0818 204.443 33.4563V14.1514H180.752V22.0501H180.754Z" fill="black"/>
<path d="M461.388 20.7811L466.93 22.5336C466.079 25.7466 464.66 28.1324 462.682 29.6959C460.701 31.2521 458.195 32.0326 455.154 32.0326C451.386 32.0326 448.291 30.7072 445.863 28.0588C443.441 25.4079 442.228 21.7874 442.228 17.1876C442.228 12.3301 443.45 8.55261 445.885 5.85999C448.32 3.16982 451.528 1.82474 455.5 1.82474C458.97 1.82474 461.788 2.8851 463.953 4.99845C465.247 6.2478 466.209 8.04206 466.857 10.3861L461.194 11.773C460.858 10.2659 460.158 9.06806 459.096 8.19179C458.025 7.31552 456.732 6.88107 455.215 6.88107C453.111 6.88107 451.401 7.6567 450.095 9.21287C448.782 10.7617 448.129 13.2751 448.129 16.7556C448.129 20.4374 448.777 23.0687 450.063 24.6322C451.356 26.2031 453.033 26.9837 455.097 26.9837C456.621 26.9837 457.935 26.4879 459.029 25.4889C460.124 24.4899 460.917 22.9263 461.393 20.786L461.388 20.7811ZM473.872 31.5442V2.35246H482.47L487.551 22.2612L492.573 2.35246H501.191V31.5442H495.884L495.864 8.56242L490.275 31.5442H484.758L479.196 8.56242L479.176 31.5442H473.869H473.872ZM507.531 22.0869L513.115 21.515C513.451 23.4369 514.124 24.8458 515.147 25.749C516.171 26.6523 517.55 27.1015 519.286 27.1015C521.119 27.1015 522.506 26.7014 523.436 25.8988C524.366 25.0986 524.835 24.161 524.835 23.0859C524.835 22.3937 524.636 21.8095 524.249 21.3186C523.858 20.8375 523.174 20.4154 522.197 20.0619C521.529 19.8189 520.012 19.3967 517.636 18.7855C514.58 17.9976 512.435 17.033 511.203 15.8843C509.467 14.2741 508.603 12.3105 508.603 9.99342C508.603 8.50597 509.013 7.10689 509.823 5.80844C510.643 4.50999 511.816 3.52573 513.353 2.84582C514.892 2.16592 516.738 1.82719 518.917 1.82719C522.462 1.82719 525.132 2.63473 526.922 4.25963C528.716 5.88453 529.654 8.04452 529.747 10.7568L524.006 10.9605C523.76 9.45342 523.24 8.37097 522.44 7.71316C521.642 7.05534 520.442 6.72153 518.844 6.72153C517.194 6.72153 515.901 7.07498 514.971 7.77943C514.369 8.23597 514.067 8.83979 514.067 9.60069C514.067 10.2929 514.352 10.8844 514.919 11.3753C515.638 12.0061 517.386 12.659 520.164 13.3389C522.943 14.0115 524.995 14.7184 526.323 15.44C527.656 16.1666 528.699 17.1533 529.45 18.41C530.203 19.6667 530.576 21.2155 530.576 23.0564C530.576 24.728 530.13 26.2964 529.224 27.7593C528.318 29.2198 527.047 30.3071 525.395 31.014C523.745 31.7258 521.686 32.0793 519.224 32.0793C515.641 32.0793 512.889 31.23 510.97 29.5241C509.05 27.8256 507.909 25.3465 507.531 22.0893V22.0869Z" fill="black"/>
<path fill-rule="evenodd" clip-rule="evenodd" d="M133.665 1C167.356 1 194.667 28.3116 194.667 62C194.667 95.6884 167.356 123 133.665 123C99.9762 123 72.6646 95.6884 72.6646 62C72.6646 28.3116 99.9762 1 133.665 1V1Z" fill="url(#paint0_radial)" stroke="#0086D1" stroke-width="0.352865" stroke-miterlimit="22.9256" stroke-linecap="round" stroke-linejoin="round"/>
<path d="M167.723 70.1982C167.731 70.1682 167.725 70.1358 167.707 70.1108C167.688 70.0857 167.659 70.0708 167.627 70.0705L155.2 69.9625L155.199 70.0625L155.106 70.0267C153.034 75.4285 150.049 78.9882 146.515 81.448C142.994 83.894 138.732 85.1315 133.732 85.1315C130.376 85.1315 127.57 84.6714 125.044 83.6692C122.518 82.6672 120.267 81.1211 118.024 78.9425L118.024 78.9424C115.768 76.754 113.796 74.6726 112.322 72.1122C110.861 69.5756 109.887 66.5641 109.617 62.5069H168.743C168.797 62.5069 168.841 62.4641 168.843 62.4103C168.895 60.9102 168.92 59.7724 168.92 59.0196C168.92 46.583 165.478 37.9626 158.625 31.0974C151.775 24.2327 143.974 20.8081 133.163 20.8081C127.576 20.8081 123.025 21.6837 118.993 23.4369C114.96 25.19 111.453 27.8182 107.95 31.3157L107.95 31.3157C100.95 38.3086 97.4497 47.1206 97.4497 59.7707C97.4497 79.0635 113.556 97.236 135.003 97.236C144.415 97.236 150.742 93.7988 156.049 88.6661L155.98 88.5942L156.049 88.6661C161.524 83.3683 165.505 77.8901 167.723 70.1982ZM133.241 31.4595C145.885 31.4595 156.158 40.1905 157.318 51.853H109.363C110.222 40.707 121.299 31.4595 133.241 31.4595Z" fill="url(#paint1_linear)" stroke="white" stroke-width="0.2" stroke-miterlimit="22.9256" stroke-linejoin="round"/>
<defs>
<radialGradient id="paint0_radial" cx="0" cy="0" r="1" gradientUnits="userSpaceOnUse" gradientTransform="translate(132.389 60.7243) rotate(43.4982) scale(187.995 800.288)">
<stop offset="0.172671" stop-color="#0189D2"/>
<stop offset="0.375931" stop-color="#C4C4C4" stop-opacity="0"/>
</radialGradient>
<linearGradient id="paint1_linear" x1="133.185" y1="20.9081" x2="133.185" y2="97.136" gradientUnits="userSpaceOnUse">
<stop stop-color="#B7B7B7"/>
<stop offset="0.5" stop-color="#F5F5F5"/>
<stop offset="1" stop-color="#C4C4C4"/>
</linearGradient>
</defs>
</svg>

<svg width="531" height="124" fill="none" xmlns="http://www.w3.org/2000/svg"><path fill-rule="evenodd" clip-rule="evenodd" d="M493.93 46.048v42.746c0 5.952 1.981 8.561 6.399 9.965 5.012 1.591 11.173-.95 13.716-1.163 0 9.577 1.154 9.962-3.142 10.056 0-5.702 1.78-4.399-15.716-4.399 0 11.696 7.231 12.526 16.723 12.572h3.394c8.314 0 15.088-3.058 15.088-11.317v-60.35h-16.344v44.63c0 1.91-1.09 2.136-2.514 2.517-1.502-3.135-.636-34.708-.574-42.803.041-5.557 1.185-4.346-15.142-4.346-1.446 0-1.885.436-1.885 1.885l-.003.007zm-25.775-1.885h-16.344v54.063h16.344V54.221c0-1.607 2.803-4.7 3.198.533.199 2.649-.054 6.708-.054 9.526h16.974c0-17.402 1.526-20.748-10.687-20.748-2.521 0-3.891.331-5.864 1.11-2.762 1.09-3.294 2.633-3.564-.48h-.003zm-45.261 0h-5.658v8.171h5.658v36.46c0 4.506 1.077 6.678 4.013 8.561 4.114 2.641 14.437 2.128 19.874 2.128v-9.43c-2.118 0-6.914.27-6.914-3.144V52.332h6.914V44.16h-6.914V31.588h-16.973v12.575zm-30.174 1.885v-1.885h-16.345v54.063h16.345V54.221c0-1.75 1.664-3.225 2.715-1.575 1.05 1.65.427 42.63.427 45.58h15.085c1.449 0 1.886-.436 1.886-1.885V53.593c0-10.564-5.184-10.059-10.685-10.059-3.699 0-7.02 1.24-9.43 2.516l.002-.002zm-60.349 45.261c0 8.564 8.141 8.741 14.837 7.28 4.809-1.045 1.431-1.632 5.523-.647.15.037.317.095.479.127l15.62.153V46.046c0-3.238-6.207-1.886-15.085-1.886-2.973 0-1.888 4.883-1.885 10.06 0 7.333.854 33.368-.629 36.459-2.275-.248-2.516-.73-2.516-3.142V44.16h-16.344V91.31zm-27.032-1.885V51.706h2.516v37.718c0 1.77-.273 1.164-1.259 1.885-1.058-.736-1.257-.088-1.257-1.885zm-16.973-36.462v37.72c0 8.703 11.676 8.801 17.601 8.801 9.514 0 18.858-.523 18.858-10.059V53.591c0-12.555-15.142-10.059-26.403-10.059-3.304 0-4.973 1.114-6.865 2.565-2.136 1.637-3.191 3.184-3.191 6.865zm-44.005-.628v37.719c0 9.693 9.803 9.43 18.23 9.43 20.716 0 18.232-3.203 18.232-21.376-22.285 0-16.17-1.814-16.917 10.117-.201 3.223.538 1.728-1.315 3.085-1.061-.736-1.257-.088-1.257-1.885V51.706h2.513c0 14.94-3.271 11.943 15.088 11.943 3.051 0 1.886-4.575 1.886-12.572 0-10.157-16.804-7.545-27.661-7.545-5.5 0-8.802 3.304-8.802 8.802h.003z" fill="#0086D1"/><path fill-rule="evenodd" clip-rule="evenodd" d="M80.722 94.879c-.859-3.984-4.35-9.809-5.861-15.182-1.77-6.286-2.384-12.292-2.207-19.145l.916-7.629.562-3.343 2.06-5.935c.056-.334.31-.349.468-.525.015-3.203 1.279-5.997 3.063-8.198l.8-1.714.236-1.507h-12.32c-.922 11.095-3.51 23.255-3.51 35.1-2.537-1.86-.99 1.176-2.707-7.82-1.102-5.77-4.278-23.551-6.065-27.28H35.974c-1.181 2.465-7.018 31.922-7.018 35.976h-.879c0-9.455-1.875-19.268-2.759-28.826-.687-7.405-.262-7.32-8.617-7.177-5.553.094-11.144.027-16.701.027l12.955 72.156c1.016 4.315.832 3.365 10.734 3.309 4.97-.03 9.948-.005 14.92-.005.04-1.892 5.649-28.188 7.607-32.756.06-.13.172-.4.29-.586.444 5.363 6.892 27.699 7.017 33.339 6.468 0 12.919.015 19.381.077 4.2.041 6.561 2.761 7.818-12.359v.002zm124.599 2.63c-2.022-3.598-.876-47.617-.876-55.278 2.813.062 4.386-.287 4.386 2.631V94c0 2.746-1.568 2.935-3.51 3.51zM180.754 22.05c1.596 4.377 5.896 7.133 10.353 17.707 14.858 35.24-8.954 60.821-10.353 64.773v2.631h23.691c1.416-4.276 2.519 1.527 12.268 1.527 5.11 0 10.071-1.021 12.734-4.603 4.615-6.202 2.197-23.261 2.197-32.9 0-14.332 3.525-33.924-4.894-38.978-2.237-1.34-4.021-1.411-7.354-1.443-11.203-.108-9.045 1.318-14.953 2.692V14.151h-23.691v7.9h.002z" fill="#000"/><path d="M461.388 20.781l5.542 1.753c-.851 3.213-2.27 5.598-4.248 7.162-1.981 1.556-4.487 2.337-7.528 2.337-3.768 0-6.863-1.326-9.291-3.974-2.422-2.651-3.635-6.272-3.635-10.871 0-4.858 1.222-8.635 3.657-11.328 2.435-2.69 5.643-4.035 9.615-4.035 3.47 0 6.288 1.06 8.453 3.173 1.294 1.25 2.256 3.044 2.904 5.388l-5.663 1.387c-.336-1.507-1.036-2.705-2.098-3.581-1.071-.876-2.364-1.31-3.881-1.31-2.104 0-3.814.775-5.12 2.33-1.313 1.55-1.966 4.063-1.966 7.544 0 3.681.648 6.313 1.934 7.876 1.293 1.571 2.97 2.352 5.034 2.352 1.524 0 2.838-.496 3.932-1.495 1.095-1 1.888-2.563 2.364-4.703l-.005-.005zm12.484 10.763V2.352h8.598l5.081 19.91 5.022-19.91h8.618v29.192h-5.307l-.02-22.982-5.589 22.982h-5.517l-5.562-22.982-.02 22.982h-5.307.003zm33.659-9.457l5.584-.572c.336 1.922 1.009 3.33 2.032 4.234 1.024.903 2.403 1.353 4.139 1.353 1.833 0 3.22-.4 4.15-1.203.93-.8 1.399-1.738 1.399-2.813 0-.692-.199-1.276-.586-1.767-.391-.482-1.075-.904-2.052-1.257-.668-.243-2.185-.665-4.561-1.277-3.056-.787-5.201-1.752-6.433-2.9-1.736-1.61-2.6-3.575-2.6-5.892 0-1.487.41-2.886 1.22-4.185.82-1.298 1.993-2.282 3.53-2.962 1.539-.68 3.385-1.019 5.564-1.019 3.545 0 6.215.808 8.005 2.433 1.794 1.625 2.732 3.785 2.825 6.497l-5.741.204c-.246-1.508-.766-2.59-1.566-3.248-.798-.658-1.998-.991-3.596-.991-1.65 0-2.943.353-3.873 1.057-.602.457-.904 1.06-.904 1.822 0 .692.285 1.283.852 1.774.719.631 2.467 1.284 5.245 1.964 2.779.672 4.831 1.38 6.159 2.101 1.333.727 2.376 1.713 3.127 2.97.753 1.257 1.126 2.805 1.126 4.646 0 1.672-.446 3.24-1.352 4.703-.906 1.46-2.177 2.548-3.829 3.255-1.65.712-3.709 1.065-6.171 1.065-3.583 0-6.335-.849-8.254-2.555-1.92-1.698-3.061-4.178-3.439-7.435v-.002z" fill="#000"/><path fill-rule="evenodd" clip-rule="evenodd" d="M133.665 1c33.691 0 61.002 27.312 61.002 61s-27.311 61-61.002 61c-33.689 0-61-27.312-61-61s27.311-61 61-61v0z" fill="url(#paint0_radial)" stroke="#0086D1" stroke-width=".353" stroke-miterlimit="22.926" stroke-linecap="round" stroke-linejoin="round"/><path d="M167.723 70.198a.104.104 0 00-.016-.087.1.1 0 00-.08-.04l-12.427-.108-.001.1-.093-.036c-2.072 5.401-5.057 8.961-8.591 11.421-3.521 2.446-7.783 3.684-12.783 3.684-3.356 0-6.162-.46-8.688-1.463-2.526-1.002-4.777-2.548-7.02-4.727h0c-2.256-2.188-4.228-4.27-5.702-6.83-1.461-2.536-2.435-5.548-2.705-9.605h59.126a.1.1 0 00.1-.097c.052-1.5.077-2.638.077-3.39 0-12.437-3.442-21.057-10.295-27.923-6.85-6.864-14.651-10.289-25.462-10.289-5.587 0-10.138.876-14.17 2.629-4.033 1.753-7.54 4.381-11.043 7.879h0c-7 6.993-10.5 15.805-10.5 28.455 0 19.293 16.106 37.465 37.553 37.465 9.412 0 15.739-3.437 21.046-8.57l-.069-.072.069.072c5.475-5.298 9.456-10.776 11.674-18.468zM133.241 31.46c12.644 0 22.917 8.73 24.077 20.393h-47.955c.859-11.146 11.936-20.394 23.878-20.394z" fill="url(#paint1_linear)" stroke="#fff" stroke-width=".2" stroke-miterlimit="22.926" stroke-linejoin="round"/><defs><radialGradient id="paint0_radial" cx="0" cy="0" r="1" gradientUnits="userSpaceOnUse" gradientTransform="rotate(43.498 -9.912 196.288) scale(187.995 800.288)"><stop offset=".173" stop-color="#0189D2"/><stop offset=".376" stop-color="#C4C4C4" stop-opacity="0"/></radialGradient><linearGradient id="paint1_linear" x1="133.185" y1="20.908" x2="133.185" y2="97.136" gradientUnits="userSpaceOnUse"><stop stop-color="#B7B7B7"/><stop offset=".5" stop-color="#F5F5F5"/><stop offset="1" stop-color="#C4C4C4"/></linearGradient></defs></svg>
